static/images/product/api/api1.svg

<svg height="170" viewBox="0 0 180 170" width="180" xmlns="http://www.w3.org/2000/svg" xmlns:xlink="http://www.w3.org/1999/xlink"><linearGradient id="a" x1="0%" x2="149.460671%" y1="0%" y2="71.875%"><stop offset="0" stop-color="#00eaf8"/><stop offset="1" stop-color="#6d42ef"/></linearGradient><path d="m923.48945 1114.43643c-2.002152-.73105-4.233523.2545-4.984462 2.19931l-5.158837 13.34927-15.61784-46.70585c5.413369-3.07522 9.060485-8.78052 9.060485-15.30091 0-9.76812-8.178413-17.71509-18.23136-17.71509-1.694183 0-3.332818.23059-4.890594.65248l-19.654136-14.17426c-1.717034-1.23835-4.141414-.88956-5.415478.77888-1.274065 1.6681-.915119 4.02388.801212 5.26223l11.295723 8.14613h-49.30075c-1.771878-7.97806-9.086149-13.97578-17.818625-13.97578-9.422595 0-17.198819 6.98225-18.136086 15.90215l-20.805154 10.93883c-1.880159.98863-2.57977 3.2713-1.562346 5.09825 1.017423 1.82695 3.366568 2.50608 5.246728 1.51813l14.043188-7.38365-16.27456 48.67048c-.609962-.06013-1.229064-.09087-1.854847-.09087-10.053298-.00034-18.231711 7.94697-18.231711 17.71509 0 7.70614 5.091689 14.27538 12.176388 16.70665l8.036733 22.15437c.560743 1.54546 2.055238 2.51189 3.650983 2.51189.426798 0 .861681-.06935 1.286721-.21522 2.016215-.69074 3.074771-2.83881 2.36391-4.79797l-4.411765-12.16079 38.90749 27.46819c-1.040627 2.22664-1.624925 4.69583-1.624925 7.29654 0 9.76812 8.178413 17.71509 18.23136 17.71509 5.223525 0 9.937634-2.14944 13.264476-5.58129l24.218128 1.47304c2.272856.00751 3.976882-1.52599 4.105554-3.51931.133594-2.07326-1.487815-3.85922-3.621451-3.98903l-14.963581-.91041 42.094761-29.71805c3.219263 2.77322 7.448919 4.46182 12.079005 4.46182 10.052596 0 18.231009-7.94697 18.231009-17.71509 0-3.41785-1.004065-6.6116-2.736919-9.32129l8.46353-21.90158c.752345-1.94344-.260508-4.11235-2.261957-4.84238zm-21.94878-46.32532c0 6.24898-5.09992 11.33333-11.368421 11.33333s-11.368421-5.08435-11.368421-11.33333 5.09992-11.33333 11.368421-11.33333 11.368421 5.08435 11.368421 11.33333zm-97.037061-24.55555c6.268225 0 11.368612 5.08426 11.368612 11.33314 0 6.24926-5.100006 11.33352-11.368612 11.33352s-11.36823-5.08426-11.36823-11.33352c.000381-6.24888 5.100005-11.33314 11.36823-11.33314zm-15.712179 26.27678 2.249915 10.53439c.380924 1.78171 2.015088 3.00987 3.839536 3.00953.260839 0 .526667-.0253.792138-.07762 2.122703-.41747 3.490683-2.40707 3.055951-4.44386l-1.709707-8.00627c2.254903.94232 4.740714 1.46818 7.353024 1.46818 8.834675 0 17.242682-6.63162 19.055728-14.59447h47.611701l-10.084954 8.6879c-1.739996 1.23944-2.103461 3.59728-.812094 5.26685.769689.99531 1.953799 1.52118 3.153587 1.52118.81245 0 1.632739-.24139 2.335436-.74161l6.399109-4.55704c0 9.78457 8.289479 17.73852 18.47895 17.73852.618602 0 1.230077-.03043 1.833-.08787l15.36848 45.38503-10.611018-7.78949c-1.72111-1.26303-4.183402-.94881-5.500426.70263-1.31631 1.65111-.989193 4.01442.732274 5.27779l6.071635 4.4572c-7.499836 2.25869-12.955719 8.98961-12.955719 16.92134 0 2.55992.572991 4.99332 1.595323 7.1932l-40.83699 28.46882 4.51444-11.63569c.756148-1.94857-.277231-4.11631-2.308711-4.84151-2.029698-.72554-4.289947.26601-5.045739 2.21492l-2.464074 6.35106c-3.338169-4.62644-8.90523-7.66538-15.200645-7.66538-4.64771 0-8.897034 1.65863-12.147545 4.38676l-40.602163-28.30606 14.777672-.63938c2.165107-.09369 3.840249-1.85352 3.742969-3.93031-.097636-2.07747-1.932062-3.68584-4.096099-3.59147l-7.304919.31593c1.834425-2.75275 2.902725-6.01872 2.902725-9.52129 0-6.51005-3.677759-12.20839-9.142195-15.29178zm-23.707085 48.33433c6.268225 0 11.36823 5.08435 11.36823 11.33333s-5.099624 11.33333-11.36823 11.33333-11.368612-5.08435-11.368612-11.33333 5.100006-11.33333 11.368612-11.33333zm60.611314 82.16666c-6.268225 0-11.368611-5.08435-11.368611-11.33333s5.100005-11.33333 11.368611-11.33333 11.368231 5.08435 11.368231 11.33333-5.100006 11.33333-11.368231 11.33333zm77.035745-38.72222c-6.268225 0-11.368612-5.08426-11.368612-11.33314 0-6.24926 5.100006-11.33353 11.368612-11.33353s11.36823 5.08427 11.36823 11.33353c-.000381 6.24888-5.100005 11.33314-11.36823 11.33314z" fill="url(#a)" fill-rule="evenodd" transform="translate(-746 -1036)"/></svg>

<?xml version="1.0" encoding="UTF-8"?>
<svg width="180px" height="170px" viewBox="0 0 180 170" version="1.1" xmlns="http://www.w3.org/2000/svg" xmlns:xlink="http://www.w3.org/1999/xlink">
    <!-- Generator: sketchtool 46.2 (44496) - http://www.bohemiancoding.com/sketch -->
    <title>F6A7E6B8-8837-4E16-8CF9-DE4F9FE4DEBF</title>
    <desc>Created with sketchtool.</desc>
    <defs>
        <linearGradient x1="0%" y1="0%" x2="149.460671%" y2="71.875%" id="linearGradient-1">
            <stop stop-color="#00EAF8" offset="0%"></stop>
            <stop stop-color="#6D42EF" offset="100%"></stop>
        </linearGradient>
    </defs>
    <g id="Page-1" stroke="none" stroke-width="1" fill="none" fill-rule="evenodd">
        <g id="Rakam-API-Screen-10/10/2017-Rich" transform="translate(-746.000000, -1036.000000)" fill="url(#linearGradient-1)">
            <path d="M923.48945,1114.43643 C921.487298,1113.70538 919.255927,1114.69093 918.504988,1116.63574 L913.346151,1129.98501 L897.728311,1083.27916 C903.14168,1080.20394 906.788796,1074.49864 906.788796,1067.97825 C906.788796,1058.21013 898.610383,1050.26316 888.557436,1050.26316 C886.863253,1050.26316 885.224618,1050.49375 883.666842,1050.91564 L864.012706,1036.74138 C862.295672,1035.50303 859.871292,1035.85182 858.597228,1037.52026 C857.323163,1039.18836 857.682109,1041.54414 859.39844,1042.78249 L870.694163,1050.92862 L821.393413,1050.92862 C819.621535,1042.95056 812.307264,1036.95284 803.574788,1036.95284 C794.152193,1036.95284 786.375969,1043.93509 785.438702,1052.85499 L764.633548,1063.79382 C762.753389,1064.78245 762.053778,1067.06512 763.071202,1068.89207 C764.088625,1070.71902 766.43777,1071.39815 768.31793,1070.4102 L782.361118,1063.02655 L766.086558,1111.69703 C765.476596,1111.6369 764.857494,1111.60616 764.231711,1111.60616 C754.178413,1111.60582 746,1119.55313 746,1129.32125 C746,1137.02739 751.091689,1143.59663 758.176388,1146.0279 L766.213121,1168.18227 C766.773864,1169.72773 768.268359,1170.69416 769.864104,1170.69416 C770.290902,1170.69416 770.725785,1170.62481 771.150825,1170.47894 C773.16704,1169.7882 774.225596,1167.64013 773.514735,1165.68097 L769.10297,1153.52018 L808.01046,1180.98837 C806.969833,1183.21501 806.385535,1185.6842 806.385535,1188.28491 C806.385535,1198.05303 814.563948,1206 824.616895,1206 C829.84042,1206 834.554529,1203.85056 837.881371,1200.41871 L862.099499,1201.89175 C864.372355,1201.89926 866.076381,1200.36576 866.205053,1198.37244 C866.338647,1196.29918 864.717238,1194.51322 862.583602,1194.38341 L847.620021,1193.473 L889.714782,1163.75495 C892.934045,1166.52817 897.163701,1168.21677 901.793787,1168.21677 C911.846383,1168.21677 920.024796,1160.2698 920.024796,1150.50168 C920.024796,1147.08383 919.020731,1143.89008 917.287877,1141.18039 L925.751407,1119.27881 C926.503752,1117.33537 925.490899,1115.16646 923.48945,1114.43643 Z M901.54067,1068.11111 C901.54067,1074.36009 896.44075,1079.44444 890.172249,1079.44444 C883.903748,1079.44444 878.803828,1074.36009 878.803828,1068.11111 C878.803828,1061.86213 883.903748,1056.77778 890.172249,1056.77778 C896.44075,1056.77778 901.54067,1061.86213 901.54067,1068.11111 Z M804.503609,1043.55556 C810.771834,1043.55556 815.872221,1048.63982 815.872221,1054.8887 C815.872221,1061.13796 810.772215,1066.22222 804.503609,1066.22222 C798.235003,1066.22222 793.135379,1061.13796 793.135379,1054.8887 C793.13576,1048.63982 798.235384,1043.55556 804.503609,1043.55556 Z M788.79143,1069.83234 L791.041345,1080.36673 C791.422269,1082.14844 793.056433,1083.3766 794.880881,1083.37626 C795.14172,1083.37626 795.407548,1083.35096 795.673019,1083.29864 C797.795722,1082.88117 799.163702,1080.89157 798.72897,1078.85478 L797.019263,1070.84851 C799.274166,1071.79083 801.759977,1072.31669 804.372287,1072.31669 C813.206962,1072.31669 821.614969,1065.68507 823.428015,1057.72222 L871.039716,1057.72222 L860.954762,1066.41012 C859.214766,1067.64956 858.851301,1070.0074 860.142668,1071.67697 C860.912357,1072.67228 862.096467,1073.19815 863.296255,1073.19815 C864.108705,1073.19815 864.928994,1072.95676 865.631691,1072.45654 L872.0308,1067.8995 C872.0308,1077.68407 880.320279,1085.63802 890.50975,1085.63802 C891.128352,1085.63802 891.739827,1085.60759 892.34275,1085.55015 L907.71123,1130.93518 L897.100212,1123.14569 C895.379102,1121.88266 892.91681,1122.19688 891.599786,1123.84832 C890.283476,1125.49943 890.610593,1127.86274 892.33206,1129.12611 L898.403695,1133.58331 C890.903859,1135.842 885.447976,1142.57292 885.447976,1150.50465 C885.447976,1153.06457 886.020967,1155.49797 887.043299,1157.69785 L846.206309,1186.16667 L850.720749,1174.53098 C851.476897,1172.58241 850.443518,1170.41467 848.412038,1169.68947 C846.38234,1168.96393 844.122091,1169.95548 843.366299,1171.90439 L840.902225,1178.25545 C837.564056,1173.62901 831.996995,1170.59007 825.70158,1170.59007 C821.05387,1170.59007 816.804546,1172.2487 813.554035,1174.97683 L772.951872,1146.67077 L787.729544,1146.03139 C789.894651,1145.9377 791.569793,1144.17787 791.472513,1142.10108 C791.374877,1140.02361 789.540451,1138.41524 787.376414,1138.50961 L780.071495,1138.82554 C781.90592,1136.07279 782.97422,1132.80682 782.97422,1129.30425 C782.97422,1122.7942 779.296461,1117.09586 773.832025,1114.01247 L788.79143,1069.83234 Z M765.084345,1118.16667 C771.35257,1118.16667 776.452575,1123.25102 776.452575,1129.5 C776.452575,1135.74898 771.352951,1140.83333 765.084345,1140.83333 C758.815739,1140.83333 753.715733,1135.74898 753.715733,1129.5 C753.715733,1123.25102 758.815739,1118.16667 765.084345,1118.16667 Z M825.695659,1200.33333 C819.427434,1200.33333 814.327048,1195.24898 814.327048,1189 C814.327048,1182.75102 819.427053,1177.66667 825.695659,1177.66667 C831.964265,1177.66667 837.06389,1182.75102 837.06389,1189 C837.06389,1195.24898 831.963884,1200.33333 825.695659,1200.33333 Z M902.731404,1161.61111 C896.463179,1161.61111 891.362792,1156.52685 891.362792,1150.27797 C891.362792,1144.02871 896.462798,1138.94444 902.731404,1138.94444 C909.00001,1138.94444 914.099634,1144.02871 914.099634,1150.27797 C914.099253,1156.52685 908.999629,1161.61111 902.731404,1161.61111 Z" id="Shape"></path>
        </g>
    </g>
</svg>
